X: 305783
M: 6/8
L: 1/8
K: F
fcA |\
fed |\
c2A fed | c2A fed | (c/=B/c/d/e/f/) (g/f/e/d/c/_B/) | B2A fed |\
c2A fed | c2A fed | cdc BAG | "^D.C."F3 |]
c2c |\
fac' fac' | egc' egc' | dgb dgb | ^cea cea |\


